dist/img/shipping.svg

<svg width="45" height="46" viewBox="0 0 45 46" fill="none" xmlns="http://www.w3.org/2000/svg">
<path d="M36.5625 41.6875C35.0093 41.6875 33.75 40.4002 33.75 38.8125H30.2344C30.2344 42.3797 33.0729 45.2812 36.5625 45.2812C40.0521 45.2812 42.8906 42.3797 42.8906 38.8125H39.375C39.375 40.4002 38.1157 41.6875 36.5625 41.6875Z" fill="#E12025"/>
<path d="M10.5469 41.6875C8.99367 41.6875 7.73438 40.4002 7.73438 38.8125H5.625C5.11031 38.8125 4.63359 38.6608 4.21875 38.4136V38.8125C4.21875 42.3796 7.05727 45.2812 10.5469 45.2812C14.0365 45.2812 16.875 42.3796 16.875 38.8125H13.3594C13.3594 40.4002 12.1001 41.6875 10.5469 41.6875Z" fill="#E12025"/>
<path d="M5.625 15.8125H9.84375V20.125H5.625V15.8125Z" fill="#E12025"/>
<path d="M37.0252 23.8452C36.2742 24.7839 35.8594 26.0101 35.8594 27.3125C35.8594 30.0861 37.7515 32.3437 40.0781 32.3437C40.2412 32.3437 40.41 32.3265 40.5795 32.3013C40.7074 31.7321 40.7812 31.1477 40.7812 30.5547C40.7812 27.7631 39.323 25.2274 37.0252 23.8452Z" fill="#E12025"/>
<path d="M44.2969 38.8125C44.2969 36.4607 43.046 34.3289 41.0723 33.1904C41.3395 32.3495 41.4844 31.464 41.4844 30.5548C41.4844 27.0286 39.3138 23.8265 36.083 22.5881L35.8594 22.5019V21.1628C36.2749 21.4101 36.7509 21.5625 37.2656 21.5625H42.8906V15.8125H37.2656C36.7509 15.8125 36.2749 15.9648 35.8594 16.2121V15.8125C35.8594 14.6618 35.313 13.5865 34.4152 12.9145C34.233 11.7098 33.2205 10.7812 31.9922 10.7812L23.3937 10.7805C24.3998 9.8756 25.0868 8.61275 25.2619 7.18603H27.4198C28.5827 7.18603 29.5291 6.2186 29.5291 5.02978C29.5291 3.84097 28.5827 2.87353 27.4198 2.87353H24.063C22.9992 1.52085 21.3947 0.717285 19.6854 0.717285C16.5839 0.717285 14.0604 3.29688 14.0604 6.46728C14.0604 8.5991 15.2037 10.4592 16.894 11.4525C15.4252 12.195 14.2798 13.5003 13.7264 15.0937H2.8125C1.64953 15.0937 0.703125 16.0612 0.703125 17.25V25.875C0.703125 27.0638 1.64953 28.0312 2.8125 28.0312H4.99992C4.08516 28.9455 3.51562 30.2177 3.51562 31.625V33.0812C2.66695 33.7374 2.10938 34.7681 2.10938 35.9375C2.10938 37.9191 3.68648 39.5312 5.625 39.5312H7.10227C7.42922 41.1692 8.84883 42.4062 10.5469 42.4062C12.2449 42.4062 13.6645 41.1692 13.9915 39.5312H33.1179C33.4448 41.1692 34.8645 42.4062 36.5625 42.4062C38.2605 42.4062 39.6802 41.1692 40.0071 39.5312H44.2969V38.8125ZM40.0781 30.5548C40.0781 32.4436 39.3588 34.2197 38.0517 35.5551L35.5683 38.0937H33.0469V15.5602C33.4744 15.351 33.8316 15.0226 34.0791 14.6136C34.3111 14.9651 34.4531 15.3762 34.4531 15.8125V23.4981L35.5894 23.9336C38.2746 24.9629 40.0781 27.6237 40.0781 30.5548ZM30.1521 35.5005L28.1531 26.8151C27.6328 24.5518 25.8469 22.8418 23.6018 22.4595L23.2031 22.3912L23.2017 15.8125H31.6406V38.0937H29.7394C30.0586 37.5899 30.2337 37.0048 30.233 36.3903V36.2178C30.233 35.9792 30.2055 35.7384 30.1521 35.5005V35.5005ZM41.4844 20.125H40.0781V17.25H41.4844V20.125ZM37.2656 17.25H38.6719V20.125H37.2656C36.4901 20.125 35.8594 19.4803 35.8594 18.6875C35.8594 17.8947 36.4901 17.25 37.2656 17.25ZM28.1236 5.02978C28.1236 5.42582 27.8086 5.74853 27.4205 5.74853H21.5269L21.6471 5.50344C22.0071 4.76816 22.7299 4.31103 23.5343 4.31103H27.4205C27.8086 4.31103 28.1236 4.63375 28.1236 5.02978ZM19.6861 2.15478C20.6529 2.15478 21.5747 2.5005 22.3137 3.10282C21.491 3.4126 20.7977 4.02425 20.3892 4.86016L19.9547 5.74853H15.5306C15.8674 3.71232 17.5999 2.15478 19.6861 2.15478V2.15478ZM15.5306 7.18603H23.8409C23.5048 9.22225 21.7723 10.7798 19.6854 10.7798C17.5985 10.7798 15.8674 9.22225 15.5306 7.18603ZM14.7642 17.25C14.7642 14.4749 16.9727 12.2173 19.6875 12.2173L31.9922 12.2187C32.5737 12.2187 33.0469 12.7024 33.0469 13.2968C33.0469 13.8913 32.5737 14.375 31.9922 14.375H18.9844V15.8125H21.7955L21.7969 23.6088L23.3712 23.8776C25.0545 24.1636 26.3939 25.4466 26.7841 27.1436L28.7824 35.8268C28.812 35.9569 28.8267 36.0877 28.8267 36.2178V36.391C28.8267 36.846 28.6538 37.2736 28.3395 37.5949C28.0245 37.9169 27.6068 38.0937 27.1617 38.0937C26.396 38.0937 25.7323 37.5633 25.5459 36.8043L23.715 29.3156C23.3227 27.7128 21.9206 26.5937 20.3041 26.5937L18.2791 26.593C16.3406 26.593 14.7642 24.9808 14.7642 22.9993V17.25ZM24.582 38.0937H21.7969V31.625C21.7969 30.2184 21.2273 28.9462 20.314 28.0319C21.2794 28.0363 22.1168 28.7061 22.3516 29.6635L24.1826 37.1522C24.2655 37.4943 24.4034 37.8105 24.582 38.0937ZM2.8125 26.5937C2.42438 26.5937 2.10938 26.2717 2.10938 25.875V17.25C2.10938 16.8539 2.42438 16.5312 2.8125 16.5312H13.3995C13.3734 16.7677 13.358 17.007 13.358 17.25V22.9993C13.358 24.4066 13.9282 25.6795 14.8423 26.5937H14.0625H8.4375H2.8125ZM10.5469 40.9687C9.63141 40.9687 8.85797 40.3657 8.56688 39.5312H12.5262C12.2358 40.3657 11.4623 40.9687 10.5469 40.9687V40.9687ZM17.5781 38.0937H5.625C4.46203 38.0937 3.51562 37.1263 3.51562 35.9375C3.51562 34.7487 4.46203 33.7812 5.625 33.7812H15.4688C16.6317 33.7812 17.5781 34.7487 17.5781 35.9375V38.0937ZM15.4688 32.3437H5.625C5.38453 32.3437 5.14898 32.3689 4.92188 32.4163V31.625C4.92188 29.6434 6.49898 28.0312 8.4375 28.0312H14.0625H16.875C18.8135 28.0312 20.3906 29.6434 20.3906 31.625V38.0937H18.9844V35.9375C18.9844 33.9559 17.4073 32.3437 15.4688 32.3437ZM36.5625 40.9687C35.647 40.9687 34.8736 40.3657 34.5825 39.5312H38.5418C38.2514 40.3657 37.478 40.9687 36.5625 40.9687ZM37.5567 38.0937L39.0459 36.5714C39.6471 35.9569 40.1428 35.264 40.5288 34.5172C41.7825 35.2978 42.6319 36.6095 42.8407 38.0937H37.5567Z" fill="white"/>
<path d="M10.5469 35.2188H11.9531V36.6562H10.5469V35.2188Z" fill="white"/>
<path d="M4.92188 35.2188H6.32812V36.6562H4.92188V35.2188Z" fill="white"/>
<path d="M7.73438 35.2188H9.14062V36.6562H7.73438V35.2188Z" fill="white"/>
</svg>

<svg xmlns="http://www.w3.org/2000/svg" fill="none" viewBox="0 0 45 46"><path fill="#E12025" d="M36.563 41.688c-1.554 0-2.813-1.288-2.813-2.876h-3.516c0 3.568 2.839 6.47 6.328 6.47 3.49 0 6.329-2.902 6.329-6.47h-3.516c0 1.588-1.26 2.876-2.813 2.876zM10.547 41.688c-1.553 0-2.813-1.288-2.813-2.876H5.625c-.515 0-.991-.151-1.406-.398v.398c0 3.568 2.838 6.47 6.328 6.47s6.328-2.902 6.328-6.47h-3.516c0 1.588-1.259 2.876-2.812 2.876zM5.625 15.813h4.219v4.312H5.625v-4.313zM37.025 23.845c-.75.939-1.166 2.165-1.166 3.468 0 2.773 1.892 5.03 4.22 5.03.162 0 .331-.017.5-.042.128-.569.202-1.153.202-1.746 0-2.792-1.458-5.328-3.756-6.71z"/><path fill="#fff" d="M44.297 38.813a6.48 6.48 0 00-3.225-5.623c.267-.84.412-1.726.412-2.635 0-3.526-2.17-6.729-5.401-7.967l-.224-.086v-1.34c.416.248.892.4 1.407.4h5.625v-5.75h-5.625c-.515 0-.991.153-1.407.4v-.4c0-1.15-.546-2.226-1.444-2.897-.182-1.205-1.194-2.134-2.423-2.134h-8.598a5.775 5.775 0 001.868-3.595h2.158c1.163 0 2.11-.967 2.11-2.156s-.947-2.156-2.11-2.156h-3.357C22.999 1.52 21.395.717 19.685.717c-3.101 0-5.625 2.58-5.625 5.75a5.773 5.773 0 002.834 4.986 6.45 6.45 0 00-3.168 3.64H2.812c-1.162 0-2.109.968-2.109 2.157v8.625c0 1.189.947 2.156 2.11 2.156H5a5.067 5.067 0 00-1.484 3.594v1.456a3.603 3.603 0 00-1.407 2.856c0 1.982 1.577 3.594 3.516 3.594h1.477c.327 1.638 1.747 2.875 3.445 2.875 1.698 0 3.117-1.237 3.444-2.875h19.127c.327 1.638 1.746 2.875 3.444 2.875 1.699 0 3.118-1.237 3.445-2.875h4.29v-.718zm-4.219-8.258c0 1.889-.72 3.665-2.026 5l-2.484 2.539h-2.521V15.56c.427-.209.785-.537 1.032-.946.232.351.374.762.374 1.198v7.686l1.136.436c2.686 1.029 4.49 3.69 4.49 6.62zM30.152 35.5l-1.999-8.686c-.52-2.263-2.306-3.973-4.551-4.356l-.399-.068-.001-6.578h8.439v22.28h-1.902c.32-.503.495-1.088.494-1.703v-.172c0-.239-.027-.48-.08-.718zm11.332-15.376h-1.406V17.25h1.406v2.875zm-4.218-2.875h1.406v2.875h-1.406c-.776 0-1.407-.645-1.407-1.438 0-.792.631-1.437 1.407-1.437zM28.124 5.03a.712.712 0 01-.703.719h-5.894l.12-.246a2.095 2.095 0 011.887-1.192h3.887c.388 0 .703.323.703.719zm-8.438-2.875a4.16 4.16 0 012.628.948 3.515 3.515 0 00-1.925 1.757l-.434.889H15.53c.336-2.037 2.069-3.594 4.155-3.594zm-4.155 5.031h8.31c-.336 2.036-2.069 3.594-4.156 3.594-2.086 0-3.818-1.558-4.154-3.594zm-.767 10.064c0-2.775 2.209-5.033 4.924-5.033l12.304.002c.582 0 1.055.483 1.055 1.078 0 .594-.473 1.078-1.055 1.078H18.984v1.438h2.811l.002 7.796 1.574.269c1.684.286 3.023 1.569 3.413 3.266l1.998 8.683c.03.13.045.26.045.39v.174c0 .455-.173.883-.488 1.204a1.636 1.636 0 01-1.177.499c-.766 0-1.43-.53-1.616-1.29l-1.831-7.488c-.392-1.603-1.794-2.722-3.41-2.722l-2.026-.001c-1.938 0-3.515-1.612-3.515-3.594V17.25zm9.818 20.844h-2.785v-6.469c0-1.407-.57-2.679-1.483-3.593a2.117 2.117 0 012.038 1.631l1.83 7.49c.084.341.221.657.4.94zm-21.77-11.5a.711.711 0 01-.703-.719V17.25c0-.396.315-.719.704-.719h10.586a6.542 6.542 0 00-.041.719V23c0 1.407.57 2.68 1.484 3.594H2.812zm7.735 14.375c-.916 0-1.689-.603-1.98-1.438h3.96c-.291.835-1.065 1.438-1.98 1.438zm7.031-2.875H5.625c-1.163 0-2.11-.968-2.11-2.157 0-1.188.947-2.156 2.11-2.156h9.844c1.163 0 2.11.968 2.11 2.157v2.156zm-2.11-5.75H5.626c-.24 0-.476.025-.703.072v-.791c0-1.982 1.577-3.594 3.516-3.594h8.437c1.939 0 3.516 1.612 3.516 3.594v6.469h-1.407v-2.157c0-1.981-1.577-3.593-3.515-3.593zm21.094 8.625c-.915 0-1.688-.603-1.98-1.438h3.96c-.29.835-1.064 1.438-1.98 1.438zm.995-2.875l1.489-1.523a8.54 8.54 0 001.483-2.054 5.036 5.036 0 012.312 3.577h-5.284z"/><path fill="#fff" d="M10.547 35.219h1.406v1.437h-1.406V35.22zM4.922 35.219h1.406v1.437H4.922V35.22zM7.734 35.219h1.407v1.437H7.734V35.22z"/></svg>
